src/frontend/assets/down-icon.svg

<svg width="32" height="32" viewBox="0 0 32 32" fill="none" xmlns="http://www.w3.org/2000/svg">
<circle cx="16" cy="16" r="16" fill="#07C5EF"/>
<path fill-rule="evenodd" clip-rule="evenodd" d="M22.3529 14.2941H18.8235V9H13.5294V14.2941H10L16.1765 20.4706L22.3529 14.2941ZM15.2941 16.0588V10.7647H17.0588V16.0588H18.0912L16.1765 17.9735L14.2618 16.0588H15.2941ZM22.3529 24V22.2353H10V24H22.3529Z" fill="#141515"/>
</svg>

<svg xmlns="http://www.w3.org/2000/svg" width="32" height="32" fill="none" viewBox="0 0 32 32"><circle cx="16" cy="16" r="16" fill="#07c5ef"/><path fill="#141515" fill-rule="evenodd" d="M22.353 14.294h-3.53V9H13.53v5.294H10l6.177 6.177zm-7.059 1.765v-5.294h1.765v5.294h1.032l-1.915 1.915-1.914-1.915zM22.353 24v-1.765H10V24z" clip-rule="evenodd"/></svg>
